src/lib/packages/icons/src/assets/filled/rocket-launch.svg

<svg width="24" height="24" viewBox="0 0 24 24" fill="none" xmlns="http://www.w3.org/2000/svg">
<path d="M7.02999 19.68C6.26999 20.44 3.37999 21.16 3.05999 21.24C3.03999 21.24 3.01999 21.24 2.99999 21.24C2.92999 21.24 2.87 21.21 2.82 21.17C2.76 21.11 2.73 21.02 2.76 20.93C2.85 20.59 3.67 17.58 4.42 16.82C4.81 16.43 5.31998 16.21 5.82998 16.23C6.31998 16.24 6.8 16.45 7.17 16.82C7.92 17.57 7.84998 18.85 7.01998 19.68H7.02999ZM7.73998 7.32C5.93998 7.61 4.4 8.85 3.73 10.54L2.76998 12.93C2.72998 13.01 2.74999 13.11 2.80999 13.18C2.85999 13.24 2.92999 13.27 2.99999 13.27C3.01999 13.27 3.03998 13.27 3.04998 13.26L6.42 12.51C7.06 10.44 7.68998 8.78 8.89998 7.08L7.73998 7.32ZM11.51 17.58C13.56 17 15.22 16.4 16.93 15.2L16.7 16.28C16.42 18.07 15.18 19.6 13.48 20.27L11.09 21.23C11.09 21.23 11.03 21.25 11 21.25C10.94 21.25 10.88 21.23 10.84 21.19C10.77 21.13 10.74 21.04 10.76 20.95L11.51 17.58ZM8.26998 10.27L13.78 15.77C13.15 16.03 12.49 16.25 11.76 16.46C11.28 16.6 10.76 16.74 10.22 16.89C10.18 16.89 10.13 16.91 10.09 16.91C9.95999 16.91 9.83 16.86 9.73 16.76L7.20998 14.24C7.07998 14.11 7.02999 13.91 7.08999 13.74C7.24999 13.22 7.39998 12.73 7.54998 12.26C7.77998 11.55 8.00998 10.89 8.26998 10.27ZM20.77 3.58C20.73 3.38 20.58 3.23 20.37 3.19C19.95 3.11 19.16 3 18.17 3C16.25 3 13.6 3.43 11.62 5.42C11.12 5.92 10.69 6.39 10.31 6.85C9.63999 7.67 9.12999 8.47 8.71999 9.31C8.71999 9.31 8.72665 9.31333 8.73998 9.32L14.74 15.31L14.76 15.33C15.58 14.94 16.35 14.45 17.15 13.81C17.63 13.42 18.13 12.97 18.65 12.45C21.66 9.44 21.01 4.83 20.77 3.58ZM15.25 11.02C14.01 11.02 13 10.02 13 8.78C13 7.54 14.01 6.53 15.25 6.53C16.49 6.53 17.5 7.54 17.5 8.78C17.5 10.02 16.49 11.02 15.25 11.02Z" fill="currentColor"/>
</svg>

<svg xmlns="http://www.w3.org/2000/svg" width="24" height="24" fill="none"><path fill="currentColor" d="M7.03 19.68c-.76.76-3.65 1.48-3.97 1.56H3c-.07 0-.13-.03-.18-.07-.06-.06-.09-.15-.06-.24.09-.34.91-3.35 1.66-4.11.39-.39.9-.61 1.41-.59.49.01.97.22 1.34.59.75.75.68 2.03-.15 2.86h.01Zm.71-12.36c-1.8.29-3.34 1.53-4.01 3.22l-.96 2.39c-.04.08-.02.18.04.25.05.06.12.09.19.09.02 0 .04 0 .05-.01l3.37-.75c.64-2.07 1.27-3.73 2.48-5.43l-1.16.24Zm3.77 10.26c2.05-.58 3.71-1.18 5.42-2.38l-.23 1.08c-.28 1.79-1.52 3.32-3.22 3.99l-2.39.96s-.06.02-.09.02c-.06 0-.12-.02-.16-.06a.243.243 0 0 1-.08-.24l.75-3.37Zm-3.24-7.31 5.51 5.5c-.63.26-1.29.48-2.02.69-.48.14-1 .28-1.54.43-.04 0-.09.02-.13.02-.13 0-.26-.05-.36-.15l-2.52-2.52a.49.49 0 0 1-.12-.5c.16-.52.31-1.01.46-1.48.23-.71.46-1.37.72-1.99Zm12.5-6.69a.49.49 0 0 0-.4-.39c-.42-.08-1.21-.19-2.2-.19-1.92 0-4.57.43-6.55 2.42-.5.5-.93.97-1.31 1.43-.67.82-1.18 1.62-1.59 2.46l.02.01 6 5.99.02.02c.82-.39 1.59-.88 2.39-1.52.48-.39.98-.84 1.5-1.36 3.01-3.01 2.36-7.62 2.12-8.87Zm-5.52 7.44c-1.24 0-2.25-1-2.25-2.24 0-1.24 1.01-2.25 2.25-2.25s2.25 1.01 2.25 2.25-1.01 2.24-2.25 2.24Z"/></svg>
